source/assets/img/inout-instagram-hover.svg

<?xml version="1.0" encoding="UTF-8"?>
<svg width="36px" height="36px" viewBox="0 0 36 36" version="1.1" xmlns="http://www.w3.org/2000/svg" xmlns:xlink="http://www.w3.org/1999/xlink">
    <!-- Generator: Sketch 43.1 (39012) - http://www.bohemiancoding.com/sketch -->
    <title>Group 13@2x</title>
    <desc>Created with Sketch.</desc>
    <defs></defs>
    <g id="Page-1" stroke="none" stroke-width="1" fill="none" fill-rule="evenodd">
        <g id="Group-13">
            <path d="M35.2857548,23.00323 L35.2857548,23.00323 C32.5225712,32.550105 22.5433232,38.0491284 12.9966923,35.2859448 L12.9966923,35.2859448 C3.44993945,32.5227612 -2.04908405,22.543269 0.71422165,12.9968823 L0.71422165,12.9968823 C3.47740525,3.45000726 13.4565312,-2.04901614 23.0032841,0.714167455 L23.0032841,0.714167455 C32.5499149,3.47735106 38.0490604,13.4568433 35.2857548,23.00323 Z" id="Shape-Copy-21" fill="#494976"></path>
            <path d="M23.0597333,13.8111164 C23.0598104,14.1846781 22.8342956,14.5214957 22.4883626,14.664487 C22.1424296,14.8074784 21.7442172,14.7284784 21.4794402,14.4643304 C21.2146633,14.2001824 21.1354752,13.8029159 21.278807,13.4578046 C21.4221389,13.1126933 21.7597584,12.8877141 22.1342095,12.887791 C22.6453186,12.8878959 23.0596282,13.3012213 23.0597333,13.8111164 Z M26,17.9809976 L25.9998095,17.9926271 L25.9472381,21.3410356 C25.9188264,23.8521326 23.8852662,25.8808625 21.3681905,25.9092067 L18,25.9619952 L17.9883429,25.9617672 L14.6319619,25.9094727 C12.1148478,25.8811309 10.0812207,23.8524355 10.0526857,21.3413017 L10,17.9809976 L10.0002286,17.9693682 L10.0526476,14.6208456 C10.0812631,12.1097456 12.1148436,10.0810968 14.6319238,10.0526746 L18,10 L18.0116571,10.000228 L21.3680381,10.0525226 C23.8850799,10.0809471 25.9185935,12.1096305 25.9470857,14.6206936 L26,17.9809976 Z M24.510019,17.9809976 L24.4576762,14.6441805 C24.4383447,12.937095 23.0559116,11.5579288 21.3447619,11.5386223 L18,11.4865178 L14.6552381,11.5386223 C12.9440925,11.5579682 11.5616605,12.9370997 11.5422476,14.6441805 L11.490019,17.9809976 L11.5422476,21.3178147 C11.5616001,23.024921 12.9440671,24.4040873 14.6552381,24.4233729 L18,24.4754774 L21.3447619,24.4233729 C23.0559371,24.4041267 24.4384051,23.0249256 24.4576762,21.3178147 L24.510019,17.9809976 Z M22.1081905,17.9809976 C22.1081905,19.6386776 21.1072486,21.133131 19.5721041,21.7674941 C18.0369596,22.4018572 16.2699343,22.0512025 15.0949922,20.8790403 C13.92005,19.7068782 13.5685768,17.9440468 14.2044645,16.4125546 C14.8403523,14.8810624 16.3383732,13.8825119 18,13.8825273 C20.267844,13.8850825 22.1056502,15.7185404 22.1081905,17.9809976 L22.1081905,17.9809976 Z M20.6184,17.9809976 C20.6184,16.9244504 19.9804339,15.9719383 19.001986,15.5676188 C18.023538,15.1632992 16.8972982,15.3867965 16.1484331,16.1338936 C15.3995681,16.8809908 15.175555,18.0045588 15.5808515,18.9806767 C15.9861479,19.9567947 16.9409372,20.5932315 18,20.5932162 C19.4454148,20.5915406 20.6167245,19.4229792 20.6183619,17.9809976 L20.6184,17.9809976 Z" id="Shape-Copy-28" fill="#00FFC2" fill-rule="nonzero"></path>
        </g>
    </g>
</svg>

<svg width="36" height="36" viewBox="0 0 36 36" xmlns="http://www.w3.org/2000/svg"><title>Group 13@2x</title><desc>Created with Sketch.</desc><g fill="none"><path d="M35.286 23.003c-2.763 9.547-12.742 15.046-22.289 12.283s-15.046-12.743-12.282-22.289c2.763-9.547 12.742-15.046 22.289-12.283s15.046 12.743 12.282 22.289z" fill="#494976"/><path d="M23.06 13.811c0 .374-.225.71-.571.853-.346.143-.744.064-1.009-.2-.265-.264-.344-.661-.201-1.007.143-.345.481-.57.855-.57.511 0 .925.413.926.923zm2.94 4.17v.012l-.053 3.348c-.028 2.511-2.062 4.54-4.579 4.568l-3.368.053h-.012l-3.356-.052c-2.517-.028-4.551-2.057-4.579-4.568l-.053-3.36v-.012l.052-3.349c.029-2.511 2.062-4.54 4.579-4.568l3.368-.053h.012l3.356.052c2.517.028 4.551 2.057 4.579 4.568l.053 3.36zm-1.49 0l-.052-3.337c-.019-1.707-1.402-3.086-3.113-3.106l-3.345-.052-3.345.052c-1.711.019-3.094 1.398-3.113 3.106l-.052 3.337.052 3.337c.019 1.707 1.402 3.086 3.113 3.106l3.345.052 3.345-.052c1.711-.019 3.094-1.398 3.113-3.106l.052-3.337zm-2.402 0c0 1.658-1.001 3.152-2.536 3.786-1.535.634-3.302.284-4.477-.888-1.175-1.172-1.526-2.935-.891-4.466.636-1.531 2.134-2.53 3.796-2.53 2.268.003 4.106 1.836 4.108 4.098zm-1.49 0c0-1.057-.638-2.009-1.616-2.413-.978-.404-2.105-.181-2.854.566-.749.747-.973 1.871-.568 2.847s1.36 1.613 2.419 1.613c1.445-.002 2.617-1.17 2.618-2.612z" fill="#00FFC2" fill-rule="nonzero"/></g></svg>
